; generated by Slic3r 1.3.0 on 2019-03-28 at 09:52:43

; external perimeters extrusion width = 0.40mm (1.27mm^3/s)
; perimeters extrusion width = 0.40mm (1.27mm^3/s)
; infill extrusion width = 0.40mm (2.54mm^3/s)
; solid infill extrusion width = 0.40mm (2.54mm^3/s)
; top infill extrusion width = 0.40mm (1.27mm^3/s)

M107
M190 S30 ; set bed temperature and wait for it to be reached
M104 S225 ; set temperature
G28 ; home all axes
G1 Z5 F5000 ; lift nozzle

; Filament gcode

M109 S225 ; set temperature and wait for it to be reached
G21 ; set units to millimeters
G90 ; use absolute coordinates
M82 ; use absolute distances for extrusion
G92 E0
G1 Z0.263 F4200.000
G1 E-4.50000 F2400.00000
G92 E0
G1 X45.072 Y53.621 F4200.000
G1 E4.50000 F2400.00000
G1 F1200
G1 X45.499 Y53.297 E4.51907
G1 X47.682 Y52.035 E4.60894
G1 X48.071 Y51.866 E4.62405
G1 X48.748 Y51.629 E4.64961
G1 X66.218 Y46.856 E5.29490
G1 X66.548 Y46.803 E5.30678
G1 X66.912 Y46.782 E5.31978
G1 X75.960 Y46.783 E5.64216
G1 X76.291 Y46.803 E5.65398
G1 X76.719 Y46.878 E5.66946
G1 X77.044 Y46.975 E5.68154
G1 X77.362 Y47.107 E5.69381
G1 X77.719 Y47.304 E5.70837
G1 X78.121 Y47.604 E5.72624
G1 X78.420 Y47.899 E5.74120
G1 X78.703 Y48.265 E5.75768
G1 X78.940 Y48.679 E5.77467
G1 X79.090 Y49.046 E5.78879
G1 X79.201 Y49.454 E5.80387
G1 X79.264 Y49.932 E5.82105
G1 X79.270 Y68.159 E6.47050
G1 X79.251 Y68.480 E6.48194
G1 X79.180 Y68.893 E6.49689
G1 X79.068 Y69.270 E6.51087
G1 X78.940 Y69.573 E6.52261
G1 X78.737 Y69.935 E6.53740
G1 X78.461 Y70.306 E6.55388
G1 X78.121 Y70.648 E6.57104
G1 X77.804 Y70.892 E6.58531
G1 X77.425 Y71.115 E6.60099
G1 X77.043 Y71.277 E6.61575
G1 X76.619 Y71.396 E6.63144
G1 X76.224 Y71.456 E6.64567
G1 X53.243 Y72.726 E7.46578
G1 X50.753 Y72.728 E7.55450
G1 X50.508 Y72.710 E7.56325
G1 X49.860 Y72.601 E7.58666
G1 X49.116 Y72.426 E7.61391
G1 X48.430 Y72.214 E7.63947
G1 X47.777 Y71.961 E7.66443
G1 X45.539 Y70.676 E7.75636
G1 X45.332 Y70.536 E7.76530
G1 X44.782 Y70.079 E7.79078
G1 X44.261 Y69.585 E7.81635
G1 X43.743 Y69.022 E7.84360
G1 X43.402 Y68.605 E7.86280
G1 X42.050 Y66.293 E7.95820
G1 X41.934 Y66.053 E7.96773
G1 X41.673 Y65.336 E7.99490
G1 X41.473 Y64.647 E8.02046
G1 X41.375 Y64.229 E8.03578
G1 X41.243 Y63.484 E8.06272
G1 X41.222 Y63.196 E8.07303
G1 X41.220 Y60.753 E8.16006
G1 X41.234 Y60.535 E8.16785
G1 X41.311 Y60.048 E8.18541
G1 X41.473 Y59.301 E8.21266
G1 X41.673 Y58.612 E8.23822
G1 X41.899 Y57.984 E8.26201
G1 X42.046 Y57.666 E8.27448
G1 X43.271 Y55.540 E8.36191
G1 X43.400 Y55.347 E8.37019
G1 X43.743 Y54.926 E8.38953
G1 X44.228 Y54.397 E8.41509
G1 X44.534 Y54.096 E8.43041
G1 X45.026 Y53.659 E8.45384
G1 E3.95384 F2400.00000
G92 E0
G1 X76.470 Y68.670 F4200.000
G1 E4.50000 F2400.00000
G1 F1200
G1 X66.368 Y68.670 E4.85992
G1 X66.368 Y49.582 E5.54001
G1 X76.470 Y49.582 E5.89993
G1 X76.470 Y68.610 E6.57789
G1 X76.126 Y68.326 F4200.000
G1 F1200
G1 X66.712 Y68.326 E6.91332
G1 X66.712 Y49.926 E7.56892
G1 X76.126 Y49.926 E7.90435
G1 X76.126 Y68.266 E8.55782
G1 X76.189 Y68.721 F4200.000
G1 E4.05782 F2400.00000
G92 E0
G1 X65.831 Y68.409 F4200.000
G1 E4.50000 F2400.00000
G1 F1200
G1 X65.802 Y68.167 E4.50867
G1 X65.799 Y50.159 E5.15032
G1 X65.838 Y49.833 E5.16202
G1 X66.025 Y49.851 E5.16869
G1 X66.025 Y68.397 E5.82951
G1 X65.891 Y68.405 E5.83428
G1 E1.33428 F2400.00000
G92 E0
G1 X66.655 Y49.239 F4200.000
G1 E4.50000 F2400.00000
G1 F1200
G1 X66.639 Y49.050 E4.50673
G1 X66.793 Y49.023 E4.51231
G1 X75.884 Y49.013 E4.83622
G1 X76.174 Y49.043 E4.84662
G1 X76.164 Y49.239 E4.85360
G1 X66.715 Y49.239 E5.19027
G1 E0.69027 F2400.00000
G92 E0
G1 X76.813 Y49.887 F4200.000
G1 E4.50000 F2400.00000
G1 F1200
G1 X77.000 Y49.869 E4.50667
G1 X77.030 Y50.021 E4.51221
G1 X77.039 Y68.094 E5.15614
G1 X77.000 Y68.419 E5.16783
G1 X76.813 Y68.401 E5.17450
G1 X76.813 Y49.947 E5.83206
G1 E1.33206 F2400.00000
G92 E0
G1 X76.183 Y69.013 F4200.000
G1 E4.50000 F2400.00000
G1 F1200
G1 X76.199 Y69.202 E4.50673
G1 X76.045 Y69.229 E4.51231
G1 X66.956 Y69.239 E4.83615
G1 X66.665 Y69.209 E4.84659
G1 X66.675 Y69.013 E4.85358
G1 X76.123 Y69.013 E5.19022
G1 X76.339 Y69.520 F4200.000
G1 F1200
G1 X76.075 Y69.572 E5.19980
G1 X66.939 Y69.582 E5.52533
G1 X66.625 Y69.551 E5.53657
G1 X66.329 Y69.459 E5.54762
G1 X66.215 Y69.403 E5.55215
G1 X66.023 Y69.277 E5.56031
G1 X65.861 Y69.132 E5.56805
G1 X65.736 Y68.982 E5.57504
G1 X65.625 Y68.805 E5.58247
G1 X65.540 Y68.611 E5.59001
G1 X65.484 Y68.404 E5.59764
G1 X65.458 Y68.188 E5.60542
G1 X65.456 Y50.146 E6.24826
G1 X65.496 Y49.790 E6.26101
G1 X65.597 Y49.504 E6.27183
G1 X65.697 Y49.327 E6.27907
G1 X65.818 Y49.167 E6.28623
G1 X65.971 Y49.016 E6.29388
G1 X66.280 Y48.815 E6.30703
G1 X66.546 Y48.718 E6.31709
G1 X66.763 Y48.680 E6.32496
G1 X75.901 Y48.670 E6.65056
G1 X76.213 Y48.701 E6.66172
G1 X76.503 Y48.791 E6.67252
G1 X76.688 Y48.887 E6.67996
G1 X76.926 Y49.070 E6.69065
G1 X77.102 Y49.271 E6.70017
G1 X77.246 Y49.516 E6.71030
G1 X77.317 Y49.703 E6.71742
G1 X77.373 Y49.988 E6.72778
G1 X77.383 Y68.106 E7.37334
G1 X77.342 Y68.462 E7.38609
G1 X77.241 Y68.748 E7.39691
G1 X77.142 Y68.925 E7.40415
G1 X77.020 Y69.085 E7.41131
G1 X76.867 Y69.236 E7.41896
G1 X76.558 Y69.437 E7.43211
G1 X76.396 Y69.502 E7.43832
G1 X76.440 Y69.848 F4200.000
G1 F1200
G1 X76.105 Y69.916 E7.45048
G1 X66.922 Y69.926 E7.77770
G1 X66.557 Y69.889 E7.79078
G1 X66.202 Y69.780 E7.80400
G1 X66.044 Y69.702 E7.81027
G1 X65.813 Y69.551 E7.82011
G1 X65.613 Y69.372 E7.82966
G1 X65.457 Y69.184 E7.83839
G1 X65.321 Y68.966 E7.84754
G1 X65.215 Y68.726 E7.85688
G1 X65.146 Y68.471 E7.86630
G1 X65.114 Y68.209 E7.87569
G1 X65.112 Y50.133 E8.51974
G1 X65.164 Y49.700 E8.53529
G1 X65.283 Y49.362 E8.54806
G1 X65.408 Y49.138 E8.55720
G1 X65.559 Y48.939 E8.56610
G1 X65.745 Y48.757 E8.57537
G1 X65.884 Y48.649 E8.58165
G1 X66.125 Y48.507 E8.59161
G1 X66.465 Y48.383 E8.60449
G1 X66.733 Y48.336 E8.61418
G1 X75.918 Y48.326 E8.94148
G1 X76.282 Y48.363 E8.95448
G1 X76.634 Y48.472 E8.96762
G1 X76.873 Y48.597 E8.97723
G1 X77.162 Y48.818 E8.99020
G1 X77.381 Y49.069 E9.00207
G1 X77.557 Y49.366 E9.01439
G1 X77.649 Y49.608 E9.02360
G1 X77.717 Y49.955 E9.03618
G1 X77.726 Y68.119 E9.68338
G1 X77.674 Y68.552 E9.69893
G1 X77.555 Y68.890 E9.71171
G1 X77.430 Y69.114 E9.72085
G1 X77.279 Y69.313 E9.72974
G1 X77.094 Y69.495 E9.73902
G1 X76.954 Y69.603 E9.74530
G1 X76.713 Y69.745 E9.75526
G1 X76.497 Y69.831 E9.76352
G1 X76.388 Y69.802 F4200.000
G1 X76.363 Y69.098 F4200.000
G1 F1200
G1 X76.655 Y68.992 E9.77164
G1 X76.782 Y68.876 E9.77614
G1 X76.900 Y68.583 E9.78442
G1 X77.097 Y68.639 F4200.000
G1 F1200
G1 X76.351 Y68.965 E9.81044
G1 E5.31044 F2400.00000
G92 E0
G1 X66.498 Y69.110 F4200.000
G1 E4.50000 F2400.00000
G1 F1200
G1 X66.197 Y68.995 E4.50926
G1 X66.084 Y68.918 E4.51320
G1 X65.901 Y68.576 E4.52433
G1 E0.02433 F2400.00000
G92 E0
G1 X65.938 Y49.669 F4200.000
G1 E4.50000 F2400.00000
G1 F1200
G1 X66.056 Y49.376 E4.50835
G1 X66.184 Y49.260 E4.51288
G1 X66.476 Y49.154 E4.52108
G1 E0.02108 F2400.00000
G92 E0
G1 X76.343 Y49.109 F4200.000
G1 E4.50000 F2400.00000
G1 F1200
G1 X76.714 Y49.296 E4.51066
G1 X76.991 Y49.697 E4.52316
G1 Z0.263 F4200.000
G1 E0.02316 F2400.00000
G92 E0
G1 X53.606 Y53.525 F4200.000
G1 E4.50000 F2400.00000
G1 F1200
G1 X54.225 Y53.669 E4.52266
G1 X55.019 Y53.933 E4.55246
G1 X55.080 Y54.108 E4.55908
G1 X55.222 Y54.387 E4.57023
G1 X55.422 Y54.662 E4.58234
G1 X55.764 Y54.978 E4.59895
G1 X56.186 Y55.215 E4.61618
G1 X56.652 Y55.346 E4.63342
G1 X57.126 Y55.365 E4.65034
G1 X57.410 Y55.314 E4.66062
G1 X57.672 Y55.527 E4.67265
G1 X58.111 Y55.944 E4.69421
G1 X58.637 Y56.533 E4.72237
G1 X58.586 Y56.797 E4.73193
G1 X58.586 Y57.149 E4.74447
G1 X58.663 Y57.555 E4.75920
G1 X58.806 Y57.917 E4.77308
G1 X59.069 Y58.310 E4.78994
G1 X59.424 Y58.639 E4.80717
G1 X59.823 Y58.862 E4.82344
G1 X60.012 Y58.928 E4.83058
G1 X60.148 Y59.289 E4.84435
G1 X60.317 Y59.870 E4.86587
G1 X60.465 Y60.587 E4.89199
G1 X60.300 Y60.780 E4.90101
G1 X60.073 Y61.187 E4.91761
G1 X59.941 Y61.652 E4.93485
G1 X59.923 Y62.118 E4.95145
G1 X59.979 Y62.471 E4.96419
G1 X60.134 Y62.892 E4.98017
G1 X60.316 Y63.189 E4.99259
G1 X60.465 Y63.357 E5.00059
G1 X60.446 Y63.477 E5.00493
G1 X60.317 Y64.078 E5.02685
G1 X60.148 Y64.661 E5.04846
G1 X60.014 Y65.022 E5.06220
G1 X59.832 Y65.081 E5.06900
G1 X59.440 Y65.301 E5.08501
G1 X59.183 Y65.520 E5.09703
G1 X58.984 Y65.750 E5.10788
G1 X58.743 Y66.165 E5.12497
G1 X58.631 Y66.511 E5.13794
G1 X58.578 Y66.956 E5.15392
G1 X58.631 Y67.419 E5.17049
G1 X58.111 Y68.004 E5.19840
G1 X57.669 Y68.423 E5.22010
G1 X57.416 Y68.634 E5.23184
G1 X57.229 Y68.592 E5.23867
G1 X56.820 Y68.585 E5.25321
G1 X56.477 Y68.639 E5.26561
G1 X56.039 Y68.801 E5.28222
G1 X55.637 Y69.069 E5.29946
G1 X55.309 Y69.425 E5.31669
G1 X55.086 Y69.823 E5.33296
G1 X55.019 Y70.016 E5.34024
G1 X54.225 Y70.279 E5.37002
G1 X53.358 Y70.463 E5.40160
G1 X53.168 Y70.301 E5.41052
G1 X52.758 Y70.071 E5.42726
G1 X52.251 Y69.933 E5.44599
G1 X51.820 Y69.925 E5.46132
G1 X51.477 Y69.979 E5.47372
G1 X51.056 Y70.134 E5.48970
G1 X50.759 Y70.316 E5.50211
G1 X50.593 Y70.463 E5.51001
G1 X50.316 Y70.417 E5.52001
G1 X49.722 Y70.278 E5.54175
G1 X48.922 Y70.015 E5.57175
G1 X48.830 Y69.746 E5.58189
G1 X48.628 Y69.413 E5.59578
G1 X48.322 Y69.082 E5.61182
G1 X48.047 Y68.883 E5.62393
G1 X47.760 Y68.736 E5.63542
G1 X47.437 Y68.631 E5.64753
G1 X46.991 Y68.579 E5.66351
G1 X46.533 Y68.631 E5.67994
G1 X46.275 Y68.421 E5.69179
G1 X45.836 Y68.004 E5.71335
G1 X45.310 Y67.415 E5.74151
G1 X45.361 Y67.151 E5.75107
G1 X45.361 Y66.795 E5.76375
G1 X45.274 Y66.355 E5.77973
G1 X45.137 Y66.025 E5.79247
G1 X44.878 Y65.638 E5.80908
G1 X44.523 Y65.309 E5.82631
G1 X44.125 Y65.086 E5.84258
G1 X43.935 Y65.020 E5.84972
G1 X43.799 Y64.659 E5.86349
G1 X43.631 Y64.078 E5.88501
G1 X43.483 Y63.360 E5.91113
G1 X43.647 Y63.168 E5.92015
G1 X43.875 Y62.761 E5.93675
G1 X44.006 Y62.296 E5.95399
G1 X44.024 Y61.830 E5.97060
G1 X43.968 Y61.477 E5.98333
G1 X43.813 Y61.056 E5.99931
G1 X43.631 Y60.759 E6.01172
G1 X43.482 Y60.591 E6.01973
G1 X43.501 Y60.471 E6.02408
G1 X43.631 Y59.870 E6.04599
G1 X43.800 Y59.287 E6.06759
G1 X43.934 Y58.926 E6.08133
G1 X44.115 Y58.867 E6.08814
G1 X44.508 Y58.647 E6.10415
G1 X44.764 Y58.428 E6.11617
G1 X44.963 Y58.198 E6.12702
G1 X45.213 Y57.768 E6.14474
G1 X45.341 Y57.313 E6.16158
G1 X45.368 Y56.968 E6.17392
G1 X45.318 Y56.528 E6.18970
G1 X45.836 Y55.944 E6.21752
G1 X46.278 Y55.525 E6.23923
G1 X46.536 Y55.311 E6.25116
G1 X46.796 Y55.362 E6.26062
G1 X47.135 Y55.362 E6.27268
G1 X47.471 Y55.309 E6.28479
G1 X47.908 Y55.147 E6.30140
G1 X48.310 Y54.878 E6.31863
G1 X48.638 Y54.523 E6.33587
G1 X48.862 Y54.125 E6.35214
G1 X48.929 Y53.932 E6.35942
G1 X49.722 Y53.669 E6.38920
G1 X50.342 Y53.525 E6.41186
G1 X50.420 Y53.649 E6.41708
G1 X50.379 Y53.700 E6.41942
G1 X50.185 Y54.103 E6.43535
G1 X50.091 Y54.657 E6.45538
G1 X50.116 Y55.037 E6.46894
G1 X50.217 Y55.372 E6.48140
G1 X50.380 Y55.706 E6.49466
G1 X50.658 Y56.054 E6.51050
G1 X51.133 Y56.391 E6.53125
G1 X51.555 Y56.538 E6.54718
G1 X51.974 Y56.586 E6.56221
G1 X52.393 Y56.538 E6.57723
G1 X52.815 Y56.391 E6.59316
G1 X53.290 Y56.054 E6.61391
G1 X53.568 Y55.704 E6.62984
G1 X53.762 Y55.301 E6.64577
G1 X53.864 Y54.702 E6.66743
G1 X53.762 Y54.103 E6.68908
G1 X53.568 Y53.700 E6.70501
G1 X53.527 Y53.649 E6.70735
G1 X53.574 Y53.576 E6.71044
G1 X52.842 Y53.441 F4200.000
G1 F1200
G1 X52.978 Y53.357 E6.71613
G1 X53.252 Y53.123 E6.72897
G1 X53.701 Y53.194 E6.74513
G1 X54.315 Y53.338 E6.76762
G1 X54.918 Y53.524 E6.79009
G1 X55.291 Y53.671 E6.80440
G1 X55.397 Y53.973 E6.81581
G1 X55.516 Y54.207 E6.82517
G1 X55.680 Y54.433 E6.83511
G1 X55.968 Y54.699 E6.84906
G1 X56.319 Y54.895 E6.86340
G1 X56.706 Y55.004 E6.87773
G1 X57.103 Y55.020 E6.89188
G1 X57.505 Y54.948 E6.90644
G1 X57.899 Y55.269 E6.92456
G1 X58.357 Y55.703 E6.94702
G1 X58.786 Y56.171 E6.96965
G1 X59.006 Y56.441 E6.98206
G1 X58.930 Y56.830 E6.99618
G1 X58.930 Y57.116 E7.00638
G1 X58.994 Y57.459 E7.01879
G1 X59.112 Y57.756 E7.03020
G1 X59.332 Y58.086 E7.04431
G1 X59.628 Y58.359 E7.05865
G1 X59.964 Y58.547 E7.07239
G1 X60.277 Y58.656 E7.08418
G1 X60.475 Y59.181 E7.10416
G1 X60.650 Y59.785 E7.12659
G1 X60.829 Y60.690 E7.15944
G1 X60.583 Y60.977 E7.17291
G1 X60.392 Y61.319 E7.18686
G1 X60.283 Y61.706 E7.20119
G1 X60.268 Y62.097 E7.21514
G1 X60.313 Y62.384 E7.22547
G1 X60.445 Y62.741 E7.23904
G1 X60.593 Y62.983 E7.24917
G1 X60.830 Y63.250 E7.26189
G1 X60.650 Y64.163 E7.29502
G1 X60.474 Y64.769 E7.31751
G1 X60.278 Y65.298 E7.33763
G1 X59.970 Y65.398 E7.34916
G1 X59.637 Y65.584 E7.36275
G1 X59.426 Y65.764 E7.37264
G1 X59.265 Y65.950 E7.38142
G1 X59.059 Y66.306 E7.39605
G1 X58.968 Y66.585 E7.40652
G1 X58.923 Y66.963 E7.42008
G1 X58.944 Y67.230 E7.42961
G1 X58.999 Y67.509 E7.43973
G1 X58.783 Y67.779 E7.45205
G1 X58.357 Y68.245 E7.47457
G1 X57.897 Y68.681 E7.49712
G1 X57.506 Y69.006 E7.51525
G1 X57.188 Y68.935 E7.52685
G1 X56.844 Y68.929 E7.53909
G1 X56.564 Y68.974 E7.54921
G1 X56.197 Y69.109 E7.56316
G1 X55.862 Y69.333 E7.57750
G1 X55.589 Y69.628 E7.59184
G1 X55.400 Y69.965 E7.60558
G1 X55.291 Y70.279 E7.61743
G1 X54.918 Y70.424 E7.63168
G1 X54.315 Y70.610 E7.65418
G1 X53.698 Y70.755 E7.67675
G1 X53.257 Y70.829 E7.69269
G1 X52.970 Y70.584 E7.70612
G1 X52.627 Y70.391 E7.72015
G1 X52.202 Y70.275 E7.73585
G1 X51.844 Y70.269 E7.74858
G1 X51.564 Y70.313 E7.75870
G1 X51.207 Y70.445 E7.77227
G1 X50.964 Y70.594 E7.78239
G1 X50.699 Y70.829 E7.79505
G1 X50.249 Y70.754 E7.81129
G1 X49.632 Y70.610 E7.83386
G1 X49.027 Y70.423 E7.85642
G1 X48.649 Y70.279 E7.87083
G1 X48.517 Y69.893 E7.88538
G1 X48.352 Y69.621 E7.89671
G1 X48.093 Y69.341 E7.91032
G1 X47.867 Y69.177 E7.92026
G1 X47.628 Y69.055 E7.92982
G1 X47.363 Y68.969 E7.93976
G1 X46.984 Y68.924 E7.95333
G1 X46.718 Y68.945 E7.96286
G1 X46.441 Y68.999 E7.97291
G1 X46.048 Y68.679 E7.99096
G1 X45.591 Y68.245 E8.01342
G1 X45.162 Y67.777 E8.03605
G1 X44.942 Y67.507 E8.04846
G1 X45.018 Y67.118 E8.06258
G1 X45.018 Y66.829 E8.07287
G1 X44.943 Y66.456 E8.08644
G1 X44.833 Y66.188 E8.09676
G1 X44.615 Y65.862 E8.11071
G1 X44.320 Y65.589 E8.12505
G1 X43.983 Y65.401 E8.13880
G1 X43.670 Y65.292 E8.15059
G1 X43.473 Y64.767 E8.17056
G1 X43.297 Y64.163 E8.19299
G1 X43.118 Y63.258 E8.22585
G1 X43.364 Y62.971 E8.23931
G1 X43.555 Y62.629 E8.25326
G1 X43.664 Y62.242 E8.26760
G1 X43.680 Y61.850 E8.28155
G1 X43.634 Y61.564 E8.29188
G1 X43.503 Y61.207 E8.30544
G1 X43.354 Y60.965 E8.31557
G1 X43.117 Y60.698 E8.32829
G1 X43.297 Y59.785 E8.36142
G1 X43.473 Y59.179 E8.38391
G1 X43.669 Y58.650 E8.40403
G1 X43.977 Y58.550 E8.41556
G1 X44.310 Y58.364 E8.42915
G1 X44.521 Y58.184 E8.43903
G1 X44.682 Y57.998 E8.44781
G1 X44.894 Y57.633 E8.46283
G1 X45.001 Y57.252 E8.47693
G1 X45.023 Y56.970 E8.48701
G1 X44.995 Y56.666 E8.49789
G1 X44.949 Y56.439 E8.50615
G1 X45.164 Y56.169 E8.51844
G1 X45.591 Y55.703 E8.54096
G1 X46.050 Y55.267 E8.56351
G1 X46.442 Y54.942 E8.58165
G1 X46.830 Y55.018 E8.59574
G1 X47.108 Y55.018 E8.60565
G1 X47.383 Y54.974 E8.61559
G1 X47.751 Y54.839 E8.62954
G1 X48.085 Y54.615 E8.64388
G1 X48.358 Y54.320 E8.65821
G1 X48.547 Y53.983 E8.67196
G1 X48.656 Y53.669 E8.68381
G1 X49.029 Y53.524 E8.69806
G1 X49.632 Y53.338 E8.72056
G1 X50.249 Y53.193 E8.74313
G1 X50.690 Y53.119 E8.75907
G1 X50.977 Y53.364 E8.77250
G1 X51.120 Y53.444 E8.77833
G1 X50.896 Y53.603 E8.78811
G1 X50.672 Y53.884 E8.80093
G1 X50.516 Y54.208 E8.81375
G1 X50.436 Y54.675 E8.83059
G1 X50.457 Y54.975 E8.84133
G1 X50.538 Y55.246 E8.85140
G1 X50.673 Y55.521 E8.86233
G1 X50.896 Y55.802 E8.87510
G1 X51.292 Y56.082 E8.89239
G1 X51.632 Y56.201 E8.90521
G1 X51.974 Y56.240 E8.91747
G1 X52.316 Y56.201 E8.92974
G1 X52.655 Y56.082 E8.94256
G1 X53.051 Y55.802 E8.95985
G1 X53.276 Y55.520 E8.97267
G1 X53.432 Y55.196 E8.98549
G1 X53.516 Y54.702 E9.00334
G1 X53.432 Y54.208 E9.02119
G1 X53.276 Y53.884 E9.03401
G1 X53.061 Y53.615 E9.04628
G1 X52.889 Y53.478 E9.05411
G1 X52.059 Y53.340 F4200.000
G1 F1200
G1 X52.392 Y53.274 E9.06619
G1 X52.593 Y53.190 E9.07396
G1 X52.776 Y53.078 E9.08159
G1 X53.084 Y52.815 E9.09604
G1 X53.203 Y52.768 E9.10060
G1 X53.767 Y52.857 E9.12092
G1 X54.405 Y53.006 E9.14428
G1 X55.031 Y53.199 E9.16764
G1 X55.513 Y53.388 E9.18607
G1 X55.549 Y53.422 E9.18784
